X:1
T:Echoes of Glory
T:Echoes of Glory
T:John Franklin Kinsey
T:John McPherson, 1888
T:Public Domain Courtesy of the Cyber Hymnal™
C:John Franklin Kinsey
Z:Public Domain
Z:Courtesy of the Cyber Hymnal™
%%score ( 1 2 ) ( 3 4 )
L:1/8
Q:1/4=92
M:6/8
K:Eb
V:1 treble 
V:2 treble 
V:3 bass 
V:4 bass 
V:1
 [GB][Ac][GB] [Ge][Fd][Ac] | [GB]3 [EG]3 | [DF][EG][FA] [DB]2 [FA] | [EG]6 | %4
w: 1.~“E- choes of glo- ry” are|ring- ing|Down thro’ the gates so|fair;|
w: 2.~“E- choes of glo- ry” are|sweet- ly|Com- ing to cheer the|weak,|
w: 3.~“E- choes of glo- ry” come|ev- er|Tell- ing of rest at|last,|
 [GB][Ac][GB] [Ge][Fd][Ac] | [GB]3 [EG]2 [Ge] | [Fd][Fc][FB] [F=A][FB][Fc] | [FB]3 || %8
w: News of sweet rest they are|bring- ing, To|hearts that are wea- ry with|care.|
w: Fill- ing the soul thus com-|plete- ly, With|love that the sor- row- ing|seek.|
w: When we shall cross o’er the|riv- er, And|life with its tur- moil is|past.|
"^Refrain" [FAd]3 | [Ge]4 [Fd][Ac] | [GB]3 [EG]2 [B,E] | ([B,D]3 [DF])[FB][B,D] | %12
w: Oh!|“E- choes of|glo- ry” From|an- * gels so|
w: ||||
w: ||||
 ([B,E]3 [EG][GB]) z | [Ge]4 [Fd][Ac] | [GB]3 [EG]2 E | [EG]3 [DF]2 [DF] | E6 |] %17
w: fair, * *|List to the|mu- sic, That|floats on the|air.|
w: |||||
w: |||||
V:2
 x6 | x6 | x6 | x6 | x6 | x6 | x6 | x3 || x3 | x6 | x6 | x6 | x6 | x6 | x5 E | x6 | E6 |] %17
V:3
 [E,E][E,E][E,E] [E,B,][E,B,][E,C] | [E,E]3 [E,B,]3 | [B,,B,][B,,B,][B,,B,] [B,,F,]2 [B,,B,] | %3
w: ~ ~ ~ ~ ~ ~|~ ~|~ ~ ~ ~ ~|
 [E,B,]6 | [E,E][E,E][E,E] [E,B,][E,B,][E,C] | [E,D]3 [E,B,]2 [E,B,] | %6
w: ~|~ ~ ~ ~ ~ ~|~ ~ ~|
 [F,B,][F,=A,][F,D] [F,C][F,D][F,E] | [B,,D]3 || [B,,B,]3 | [E,B,][E,B,][E,B,] [E,B,][E,B,][E,C] | %10
w: ~ ~ ~ ~ ~ ~|~|Oh!|Ech- oes of glo- ry, yes,|
 [E,E][E,E][E,E] [E,B,][E,B,][E,G,] | [B,,F,][B,,F,][B,,F,] [B,,F,]2 [B,,F,] | %12
w: e- choes of glo- ry, From|an- gels so fair, bright|
 [E,G,][E,G,][E,G,] [E,G,]3 | [E,B,][E,B,][E,B,] [E,B,][E,B,][E,C] | %14
w: an- gels so fair,|List to the mu- sic, the|
 [E,E][E,E][E,E] [E,B,][E,B,][G,B,] | B,3 [B,,A,]2 [B,,A,] | [E,G,]6 |] %17
w: heav- en- ly mu- sic, That|floats on the|air.|
V:4
 x6 | x6 | x6 | x6 | x6 | x6 | x6 | x3 || x3 | x6 | x6 | x6 | x6 | x6 | x6 | B,3 x3 | x6 |] %17

